TileServer und Tiles/svg/9/42_12.svg

<?xml version='1.0' encoding='UTF-8' standalone='no'?>
<svg xmlns="http://www.w3.org/2000/svg" width="497pt" viewBox="0 0 497 279" xmlns:xlink="http://www.w3.org/1999/xlink" height="279pt">
 <defs style="stroke:none;" overflow="visible">
  <path id="glyph0-3" d="M 9.484375 -0.5 L 1.703125 -0.5 L 1.703125 -7.046875 L 9.25 -7.046875 L 9.25 -7.75 L 0.96875 -7.75 L 0.96875 0.78125 L 1.703125 0.78125 L 1.703125 0.203125 L 9.484375 0.203125 Z M 8.25 -1.875 C 7.75 -2.484375 6.984375 -3.203125 6.109375 -3.90625 C 6.734375 -4.703125 7.3125 -5.546875 7.796875 -6.453125 L 7.078125 -6.6875 C 6.65625 -5.875 6.140625 -5.09375 5.546875 -4.359375 C 4.796875 -4.9375 3.984375 -5.5 3.25 -5.953125 L 2.734375 -5.484375 C 3.484375 -5 4.3125 -4.421875 5.0625 -3.8125 C 4.234375 -2.90625 3.296875 -2.125 2.3125 -1.515625 C 2.484375 -1.375 2.78125 -1.09375 2.90625 -0.953125 C 3.859375 -1.59375 4.796875 -2.40625 5.625 -3.34375 C 6.46875 -2.625 7.203125 -1.921875 7.671875 -1.3125 Z M 8.25 -1.875 "/>
  <path id="glyph0-2" d="M 3.53125 -1.9375 L 2.75 -1.9375 L 2.75 -8.265625 L 2.125 -8.265625 L 2.125 -1.9375 L 1.359375 -1.9375 L 1.359375 -6.46875 L 0.765625 -6.46875 L 0.765625 -0.296875 L 1.359375 -0.296875 L 1.359375 -1.3125 L 3.53125 -1.3125 L 3.53125 -0.609375 L 4.140625 -0.609375 L 4.140625 -6.46875 L 3.53125 -6.46875 Z M 9 -3.75 L 4.484375 -3.75 L 4.484375 -3.09375 L 6.015625 -3.09375 L 6.015625 0.765625 L 6.703125 0.765625 L 6.703125 -3.09375 L 8.3125 -3.09375 L 8.3125 -0.953125 C 8.3125 -0.859375 8.28125 -0.828125 8.1875 -0.828125 C 8.0625 -0.8125 7.6875 -0.8125 7.28125 -0.828125 C 7.375 -0.65625 7.453125 -0.390625 7.484375 -0.21875 C 8.078125 -0.203125 8.453125 -0.21875 8.6875 -0.3125 C 8.9375 -0.4375 9 -0.625 9 -0.953125 Z M 8.375 -5.359375 L 5.34375 -5.359375 L 5.34375 -4.734375 L 8.375 -4.734375 Z M 6.5 -8.34375 C 6.0625 -7.234375 5.140625 -6 4.15625 -5.3125 C 4.265625 -5.171875 4.4375 -4.90625 4.515625 -4.734375 C 5.515625 -5.4375 6.40625 -6.625 6.859375 -7.640625 C 7.40625 -6.578125 8.34375 -5.4375 9.28125 -4.75 C 9.375 -4.953125 9.546875 -5.21875 9.671875 -5.390625 C 8.734375 -5.984375 7.75 -7.171875 7.1875 -8.34375 Z M 6.5 -8.34375 "/>
  <path id="glyph0-1" d="M 7.3125 -7.984375 C 7.734375 -6.5625 8.421875 -4.921875 9.078125 -4 C 9.203125 -4.203125 9.484375 -4.453125 9.671875 -4.59375 C 9.0625 -5.390625 8.34375 -6.890625 7.984375 -8.1875 Z M 5.453125 -8.171875 C 5.15625 -6.703125 4.59375 -5.328125 3.8125 -4.4375 C 4 -4.328125 4.3125 -4.09375 4.453125 -3.953125 C 5.234375 -4.9375 5.84375 -6.4375 6.21875 -8.015625 Z M 4.125 -2.953125 C 3.921875 -3.21875 3.0625 -4.3125 2.75 -4.671875 L 2.75 -5.546875 L 4.046875 -5.546875 L 4.046875 -6.234375 L 2.75 -6.234375 L 2.75 -8.375 L 2.046875 -8.375 L 2.046875 -6.234375 L 0.546875 -6.234375 L 0.546875 -5.546875 L 1.953125 -5.546875 C 1.625 -4.171875 0.96875 -2.609375 0.3125 -1.765625 C 0.4375 -1.59375 0.625 -1.296875 0.703125 -1.09375 C 1.203125 -1.765625 1.6875 -2.84375 2.046875 -3.96875 L 2.046875 0.75 L 2.75 0.75 L 2.75 -3.796875 C 3.09375 -3.3125 3.484375 -2.6875 3.65625 -2.359375 Z M 7.34375 -2.375 C 7.703125 -1.84375 8.0625 -1.21875 8.375 -0.625 C 7.40625 -0.5625 6.4375 -0.515625 5.578125 -0.46875 C 6.0625 -1.5625 6.625 -3.078125 7.015625 -4.296875 L 6.1875 -4.515625 C 5.875 -3.265625 5.3125 -1.546875 4.828125 -0.4375 C 4.453125 -0.40625 4.109375 -0.390625 3.8125 -0.375 L 3.9375 0.375 C 5.1875 0.296875 6.953125 0.171875 8.6875 0.046875 C 8.8125 0.3125 8.921875 0.5625 8.984375 0.78125 L 9.671875 0.421875 C 9.375 -0.40625 8.65625 -1.703125 7.984375 -2.6875 Z M 7.34375 -2.375 "/>
  <path id="glyph0-0" d="M 1 1.203125 L 9 1.203125 L 9 -8.796875 L 1 -8.796875 Z M 5 -4.203125 L 1.8125 -8.296875 L 8.1875 -8.296875 Z M 5.3125 -3.796875 L 8.5 -7.890625 L 8.5 0.296875 Z M 1.8125 0.703125 L 5 -3.390625 L 8.1875 0.703125 Z M 1.5 -7.890625 L 4.6875 -3.796875 L 1.5 0.296875 Z M 1.5 -7.890625 "/>
 </defs>
 <image width="497" xlink:href="svg/9/42_12.jpg" height="279"/>
 <g>
  <path d="M 71.886719 260.515625 C 72.308594 261.9375 72.996094 263.578125 73.652344 264.5 C 73.777344 264.296875 74.058594 264.046875 74.246094 263.90625 C 73.636719 263.109375 72.917969 261.609375 72.558594 260.3125 Z M 70.027344 260.328125 C 69.730469 261.796875 69.167969 263.171875 68.386719 264.0625 C 68.574219 264.171875 68.886719 264.40625 69.027344 264.546875 C 69.808594 263.5625 70.417969 262.0625 70.792969 260.484375 Z M 68.699219 265.546875 C 68.496094 265.28125 67.636719 264.1875 67.324219 263.828125 L 67.324219 262.953125 L 68.621094 262.953125 L 68.621094 262.265625 L 67.324219 262.265625 L 67.324219 260.125 L 66.621094 260.125 L 66.621094 262.265625 L 65.121094 262.265625 L 65.121094 262.953125 L 66.527344 262.953125 C 66.199219 264.328125 65.542969 265.890625 64.886719 266.734375 C 65.011719 266.90625 65.199219 267.203125 65.277344 267.40625 C 65.777344 266.734375 66.261719 265.65625 66.621094 264.53125 L 66.621094 269.25 L 67.324219 269.25 L 67.324219 264.703125 C 67.667969 265.1875 68.058594 265.8125 68.230469 266.140625 Z M 71.917969 266.125 C 72.277344 266.65625 72.636719 267.28125 72.949219 267.875 C 71.980469 267.9375 71.011719 267.984375 70.152344 268.03125 C 70.636719 266.9375 71.199219 265.421875 71.589844 264.203125 L 70.761719 263.984375 C 70.449219 265.234375 69.886719 266.953125 69.402344 268.0625 C 69.027344 268.09375 68.683594 268.109375 68.386719 268.125 L 68.511719 268.875 C 69.761719 268.796875 71.527344 268.671875 73.261719 268.546875 C 73.386719 268.8125 73.496094 269.0625 73.558594 269.28125 L 74.246094 268.921875 C 73.949219 268.09375 73.230469 266.796875 72.558594 265.8125 Z M 71.917969 266.125 " transform=" rotate(  340 79.5748 265.5) " style="fill:none;stroke-width:3;stroke-linecap:butt;stroke-linejoin:round;stroke:rgb(100%,100%,100%);stroke-opacity:0.6;stroke-miterlimit:10;"/>
  <path d="M 78.105469 266.5625 L 77.324219 266.5625 L 77.324219 260.234375 L 76.699219 260.234375 L 76.699219 266.5625 L 75.933594 266.5625 L 75.933594 262.03125 L 75.339844 262.03125 L 75.339844 268.203125 L 75.933594 268.203125 L 75.933594 267.1875 L 78.105469 267.1875 L 78.105469 267.890625 L 78.714844 267.890625 L 78.714844 262.03125 L 78.105469 262.03125 Z M 83.574219 264.75 L 79.058594 264.75 L 79.058594 265.40625 L 80.589844 265.40625 L 80.589844 269.265625 L 81.277344 269.265625 L 81.277344 265.40625 L 82.886719 265.40625 L 82.886719 267.546875 C 82.886719 267.640625 82.855469 267.671875 82.761719 267.671875 C 82.636719 267.6875 82.261719 267.6875 81.855469 267.671875 C 81.949219 267.84375 82.027344 268.109375 82.058594 268.28125 C 82.652344 268.296875 83.027344 268.28125 83.261719 268.1875 C 83.511719 268.0625 83.574219 267.875 83.574219 267.546875 Z M 82.949219 263.140625 L 79.917969 263.140625 L 79.917969 263.765625 L 82.949219 263.765625 Z M 81.074219 260.15625 C 80.636719 261.265625 79.714844 262.5 78.730469 263.1875 C 78.839844 263.328125 79.011719 263.59375 79.089844 263.765625 C 80.089844 263.0625 80.980469 261.875 81.433594 260.859375 C 81.980469 261.921875 82.917969 263.0625 83.855469 263.75 C 83.949219 263.546875 84.121094 263.28125 84.246094 263.109375 C 83.308594 262.515625 82.324219 261.328125 81.761719 260.15625 Z M 81.074219 260.15625 " transform=" rotate(  340 79.5748 265.5) " style="fill:none;stroke-width:3;stroke-linecap:butt;stroke-linejoin:round;stroke:rgb(100%,100%,100%);stroke-opacity:0.6;stroke-miterlimit:10;"/>
  <path d="M 94.058594 268 L 86.277344 268 L 86.277344 261.453125 L 93.824219 261.453125 L 93.824219 260.75 L 85.542969 260.75 L 85.542969 269.28125 L 86.277344 269.28125 L 86.277344 268.703125 L 94.058594 268.703125 Z M 92.824219 266.625 C 92.324219 266.015625 91.558594 265.296875 90.683594 264.59375 C 91.308594 263.796875 91.886719 262.953125 92.371094 262.046875 L 91.652344 261.8125 C 91.230469 262.625 90.714844 263.40625 90.121094 264.140625 C 89.371094 263.5625 88.558594 263 87.824219 262.546875 L 87.308594 263.015625 C 88.058594 263.5 88.886719 264.078125 89.636719 264.6875 C 88.808594 265.59375 87.871094 266.375 86.886719 266.984375 C 87.058594 267.125 87.355469 267.40625 87.480469 267.546875 C 88.433594 266.90625 89.371094 266.09375 90.199219 265.15625 C 91.042969 265.875 91.777344 266.578125 92.246094 267.1875 Z M 92.824219 266.625 " transform=" rotate(  340 79.5748 265.5) " style="fill:none;stroke-width:3;stroke-linecap:butt;stroke-linejoin:round;stroke:rgb(100%,100%,100%);stroke-opacity:0.6;stroke-miterlimit:10;"/>
  <g transform=" rotate(  340 79.5748 265.5) " style="fill:rgb(13.333333%,13.333333%,13.333333%);fill-opacity:1;">
   <use xlink:href="#glyph0-1" y="268.500077" x="64.574795"/>
   <use xlink:href="#glyph0-2" y="268.500077" x="74.574795"/>
   <use xlink:href="#glyph0-3" y="268.500077" x="84.574795"/>
  </g>
 </g>
</svg>

<svg xmlns="http://www.w3.org/2000/svg" xmlns:xlink="http://www.w3.org/1999/xlink" viewBox="0 0 497 279"> <defs overflow="visible" style="stroke:none">  <path id="c" d="M9.5-.5H1.7V-7h7.5v-.8H1V.8h.7V.2h7.8ZM8.2-1.9a15.2 15.2 0 0 0-1.9-2l1.4-2.6-.6-.2a14 14 0 0 1-1.6 2.3A27.8 27.8 0 0 0 3.2-6l-.4.5c.7.5 1.5 1 2.3 1.7-.9.8-1.8 1.7-2.8 2.3A7 7 0 0 1 3-1c1-.6 1.8-1.4 2.6-2.3.9.7 1.6 1.3 2 2Zm.1 0"/>  <path id="b" d="M3.5-2h-.8v-6.2h-.6v6.3h-.7v-4.6H.8v6.2h.6v-1h2.1v.7h.6v-5.9h-.6ZM9-3.7H4.5v.7H6V.8h.7v-3.9h1.6V-1l-.1.2h-1c.3.1.4.4.4.6l1.1-.1c.2-.1.3-.3.3-.7Zm-.6-1.6h-3v.6h2.9ZM6.5-8.4C6.1-7.1 5.1-6 4.2-5.3l.3.7A7.6 7.6 0 0 0 7-7.7c.4 1.2 1.3 2.4 2.3 3.1 0-.4.2-.7.4-.9-1-.5-2-1.7-2.5-2.9Zm0 .1"/>  <path id="a" d="M7.3-8c.4 1.4 1.1 3 1.8 4l.6-.6A12 12 0 0 1 8-8.2Zm-1.8-.2c-.3 1.5-1 2.9-1.7 3.8a4 4 0 0 1 .7.4c.7-1 1.3-2.4 1.7-4ZM4-3a60 60 0 0 0-1.2-1.7v-.8H4v-.7H2.7v-2.2H2v2.2H.5v.7H2C1.6-4.2 1-2.6.3-1.8l.4.8c.5-.8 1-1.8 1.3-3V.8h.8v-4.6l.8 1.4Zm3.3.6a19 19 0 0 1 1 1.8l-2.6.1C6-1.5 6.6-3 7-4.3l-.8-.2c-.3 1.2-.9 3-1.4 4l-1 .2.2.7L8.7 0l.3.8.7-.4c-.3-.8-1-2.1-1.7-3Zm0 0"/>  <path d="M1 1.2h8v-10H1Zm4-5.4L1.8-8.3h6.4Zm.3.4 3.2-4v8ZM1.8.7l3.2-4L8.2.6Zm-.3-8.6 3.2 4.1L1.5.3Zm0 0"/> </defs> <image xlink:href="svg/9/42_12.jpg" width="497" height="279"/> <path d="M71.9 260.5c.4 1.5 1.1 3 1.8 4 0-.2.3-.5.5-.6a12 12 0 0 1-1.6-3.6Zm-1.9-.2c-.3 1.5-.8 2.9-1.6 3.8a4 4 0 0 1 .6.4c.8-1 1.4-2.4 1.8-4Zm-1.3 5.2a60 60 0 0 0-1.4-1.7v-.8h1.3v-.7h-1.3V260h-.7v2.3h-1.5v.7h1.4c-.3 1.3-1 2.9-1.5 3.7l.3.7c.5-.7 1-1.7 1.3-2.9v4.8h.7v-4.7l1 1.5Zm3.2.6A19 19 0 0 1 73 268h-2.8l1.4-3.8-.8-.2-1.4 4-1 .2.1.8 4.8-.5c0 .3.2.6.3.8l.6-.4c-.2-.8-1-2.1-1.6-2.9ZM78.1 266.6h-.8v-6.4h-.6v6.4h-.8V262h-.6v6.2h.7v-1h2.1v.7h.6V262h-.6Zm5.5-1.9H79v.7h1.6v3.9h.7v-3.9h1.6v2.1l-.1.2h-1l.4.6 1.1-.1c.2-.2.3-.3.3-.7Zm-.7-1.6H80v.7h3Zm-1.8-3c-.5 1.3-1.4 2.5-2.4 3.1l.4.7a7.6 7.6 0 0 0 2.3-3.1c.6 1.2 1.6 2.4 2.6 3.1-.1-.5 0-.6.2-.9-.9-.5-1.9-1.7-2.4-2.9ZM94 268h-7.6v-6.5h7.4v-.8h-8.3v8.7h.8v-.7H94Zm-1.1-1.4a15.2 15.2 0 0 0-2.2-2c.6-.8 1.2-1.6 1.7-2.6l-.7-.2a14 14 0 0 1-1.7 2.3 27.8 27.8 0 0 0-2.2-1.6l-.5.5c.8.5 1.7 1 2.3 1.7-.8.9-1.6 1.7-2.6 2.3a7 7 0 0 1 .5.5c1-.5 1.9-1.4 2.7-2.3.8.7 1.6 1.4 2 2Zm-.1 0" style="fill:none;stroke-width:3;stroke-linecap:butt;stroke-linejoin:round;stroke:#fff;stroke-opacity:.6;stroke-miterlimit:10" transform=" rotate(  340 79.5748 265.5) "/> <g style="fill:#222;fill-opacity:1" transform=" rotate(  340 79.5748 265.5) ">  <use xlink:href="#a" x="64.6" y="268.5"/>  <use xlink:href="#b" x="74.6" y="268.5"/>  <use xlink:href="#c" x="84.6" y="268.5"/> </g></svg>
